X:1
T:Cruda mia Filli
T:Cruda mia Filli
T:Claudio Saracini
T:Source : Le terze Musische per cantar e sonar---Venetia---A.Vincenti---1620. Editor : André Vierendeels (18/01/16).
T:Notes : Original clefs : C1, F4 Figures above BC are notated in original print Editorial accidentals above the staff m 5 in BC "re" notated as "do" in original print m 10 in S : "fa" notated  as "fa natural" The original print was damaged ( perhaps during WWII), necessitating an editorial addendum mm 32-33 
T:©
T:©
T:©
T:©
T:©
C:Claudio Saracini
Z:©
%%score 1 2
L:1/8
Q:1/4=96
M:4/4
K:C
V:1 treble nm="Soprano" snm="S"
V:2 bass nm="BC" snm="BC"
V:1
 F2 z6 | B6 AA | B8 | ^c8 | z4 d4 | G4 ^G4 | ^G4 z4 | A8 | E6 F2 |"^#""^#" F4 F4 | c8- | c6 BB | %12
w: Cru-|* da mia|Fil-|li,|io|mo- *|ro,|io|mo- *|* ro,|cru-|* da mia|
 d8- | d4 ^G4 | z2 e2 B4- | B8 | A8 :: z4 z2 B2 | B8 | B8 | z dcB B4 | B4 z eBB | ^c4 c4 | %23
w: Fil-|* li,|io mo-||ro.|E|me-|co|o- gni spe- ran-|za, o- gni de-|si- o|
 z e^cB A3 G | F4 F/E/D/C/ D2 | G/F/E/D/ E/D/^C/B,/ C4 | D8 | z2 EE A4- | A4 ^G2 ^F2 | E8 | E8 | %31
w: di ri- ve- der- ti|piu mo- * * * ren-|d'o- * * * * * * * bli-|o.|Tu se cru-|* da vi-|ven-|do,|
 z2 BB d4- | d4 ^c2 B2 | A4 A4 | z4 z2 z A | A6 G2 | G4 D4- | D4 E4 | EFGF DEFE | D8 | C8 | %41
w: tu se cru-|* da vi-|ven- do,|cor|che _|si cru-|* da|mo- * * * ren- * * *||do,|
 z ^FFF A4- | A4 B4 | ^c8 | ^c8 | dc B2 B z ed | ^c2 e4 AA | B8 | A8 | AG ^F2 F z BA | ^G2 A4 ^CD | %51
w: che la mia du-|* ra|sor-|te,|O in vi- ver, O'in mo-|rir mi vuoi dar|mor-|te,|O in vi- ver, O'in mo-|rir mi vuoi dar|
 E8 | D8 | _B6 ^FG | A8 | G8 :| %56
w: mor-|te,|mi vuoi dar|mor-|te.|
V:2
 G,2 F,2 E,2 D,2 | ^C,8 | B,,8 |"^#" A,,8 | A,2 G,2 ^F,2 D,2 | B,,2 A,,2 ^G,,4 | ^G,,4 ^G,4 | %7
 ^F,4 ^C,4- | C,4 =C,4 |"^#" B,,8 | C,4 B,,2 A,,2 | ^G,,8 | ^F,,8 |"^#" E,,8 | E,8- | E,8 | A,,8 :: %17
 G,,8- | G,,8 | G,,8 | G,,8 | G,,4 ^G,,4 | A,,8 | ^C,8 | D,6 _B,,2 | G,,2 A,,6 | D,8 | ^C,6 ^G,2 | %28
 ^F,2 E,6- | E,8- | E,8 |"^(#)" D,C, B,,4 A,,G,, | ^F,,8 | ^F,,8 | B,,4 ^C,4- | C,4 B,,4- | B,,8 | %37
 A,,4 ^G,,4 | G,4 G,4 | G,8 | C,8 | D,8 | B,,8 | A,,8- | A,,8 | ^F,2 ^G,6 | A,4 ^C,4 | E,8 | A,,8 | %49
 D,4 D,2 E,2- | E,2 A,,6- | A,,8 | D,8 |"^b" G,,4 D,4- | D,4 D,,4 | G,,8 :| %56

